src/images/svg/markets/deposit-and-withdrawal-new.svg

<svg width="50" height="50" viewBox="0 0 50 50" fill="none" xmlns="http://www.w3.org/2000/svg">
<rect opacity="0.01" x="1" y="1" width="48" height="48" fill="white" stroke="#979797"/>
<path fill-rule="evenodd" clip-rule="evenodd" d="M1 1V9.022L4.399 13.253C4.779 13.725 5.353 14 5.959 14H44.041C44.647 14 45.221 13.725 45.601 13.253L49 9.022V1H1Z" fill="#85ACAF"/>
<g style="mix-blend-mode:multiply">
<path fill-rule="evenodd" clip-rule="evenodd" d="M31.4111 20.7144H30.1401C29.8461 22.4904 28.6461 23.7864 27.1661 23.7864V22.0914C27.8061 22.0914 28.5171 21.1774 28.5171 19.8664C28.5171 18.5564 27.8061 17.6424 27.1661 17.6424C26.5261 17.6424 25.8141 18.5564 25.8141 19.8664C25.8141 22.0654 24.4761 23.7864 22.7671 23.7864C21.2871 23.7864 20.0881 22.4904 19.7941 20.7144H18.5891V19.0194H19.7941C20.0881 17.2434 21.2871 15.9474 22.7671 15.9474V17.6424C22.1291 17.6424 21.4171 18.5564 21.4171 19.8664C21.4171 21.1774 22.1291 22.0914 22.7671 22.0914C23.4071 22.0914 24.1191 21.1774 24.1191 19.8664C24.1191 17.6694 25.4571 15.9474 27.1661 15.9474C28.6461 15.9474 29.8461 17.2434 30.1401 19.0194H31.4111V20.7144ZM14 5.38983V33.3898C14 34.4938 14.895 35.3898 16 35.3898H34C35.104 35.3898 36 34.4938 36 33.3898V5.38983H14Z" fill="#FF444F"/>
</g>
<path fill-rule="evenodd" clip-rule="evenodd" d="M26.4959 37.5506L23.6929 33.3356V27.4076C23.6929 26.7436 23.1539 26.2046 22.4899 26.2046H20.9449C20.2799 26.2046 19.7419 26.7436 19.7419 27.4076V32.2186H18.6519H15.9549C14.8499 32.2186 13.9549 31.3236 13.9549 30.2186V18.7816L11.4859 20.8076C11.1149 21.1126 10.8649 21.5406 10.7839 22.0146L9.20491 31.1986C9.11891 31.6966 9.22491 32.2086 9.50191 32.6316L17.3629 43.1336C17.4219 43.2436 17.4519 43.3656 17.4519 43.4896V49.0006H27.8109L26.8109 38.6286C26.8109 38.2466 26.7019 37.8726 26.4959 37.5506Z" fill="#85ACAF"/>
</svg>

<svg width="50" height="50" fill="none" xmlns="http://www.w3.org/2000/svg"><path opacity=".01" fill="#fff" stroke="#979797" d="M1 1h48v48H1z"/><path fill-rule="evenodd" clip-rule="evenodd" d="M1 1v8.022l3.399 4.231c.38.472.954.747 1.56.747h38.082c.606 0 1.18-.275 1.56-.747L49 9.022V1H1Z" fill="#85ACAF"/><path fill-rule="evenodd" clip-rule="evenodd" d="M31.411 20.714h-1.27c-.295 1.776-1.495 3.072-2.975 3.072v-1.695c.64 0 1.351-.914 1.351-2.225 0-1.31-.71-2.224-1.35-2.224-.64 0-1.353.914-1.353 2.224 0 2.2-1.338 3.92-3.047 3.92-1.48 0-2.679-1.296-2.973-3.072H18.59V19.02h1.205c.294-1.776 1.493-3.072 2.973-3.072v1.695c-.638 0-1.35.914-1.35 2.224 0 1.311.712 2.225 1.35 2.225.64 0 1.352-.914 1.352-2.225 0-2.197 1.338-3.919 3.047-3.919 1.48 0 2.68 1.296 2.974 3.072h1.271v1.695ZM14 5.39v28a2 2 0 0 0 2 2h18a2 2 0 0 0 2-2v-28H14Z" fill="#FF444F" style="mix-blend-mode:multiply"/><path fill-rule="evenodd" clip-rule="evenodd" d="m26.496 37.55-2.803-4.214v-5.928c0-.664-.54-1.203-1.203-1.203h-1.545c-.665 0-1.203.539-1.203 1.203v4.81h-3.787a2 2 0 0 1-2-2V18.783l-2.47 2.026a2 2 0 0 0-.701 1.207l-1.58 9.184c-.085.498.02 1.01.298 1.433l7.86 10.502c.06.11.09.232.09.356V49H27.81l-1-10.371a2 2 0 0 0-.315-1.078Z" fill="#85ACAF"/></svg>
